Flat-ZOMG-dark/actions/symbolic/document-open-symbolic.svg

<svg xmlns="http://www.w3.org/2000/svg" width="16" height="16" version="1.1">
 <defs>
  <style id="current-color-scheme" type="text/css">
   .ColorScheme-Text { color:#5c616c; } .ColorScheme-Highlight { color:#367bf0; } .ColorScheme-NeutralText { color:#ffcc44; } .ColorScheme-PositiveText { color:#3db47e; } .ColorScheme-NegativeText { color:#dd4747; }
  </style>
 </defs>
 <path style="fill:currentColor" class="ColorScheme-Text" d="m 1.9999999,1.0000001 c 0,0 -1.00000005,0 -1.00000005,1 V 11 14 c 0,1 1.00000005,1 1.00000005,1 h 2 v -2 h -1 V 3.0097657 H 11 V 5.0000001 8 8 l 2.000003,-2.58e-4 v -1.7497423 -4.25 c 0,-1.00000001 -1,-1.00000001 -1,-1.00000001 z m 3.7148438,6 c 0,0 -0.7148438,-9.015e-4 -0.7148438,0.6914062 v 7.6171877 c 0,0 5.581e-4,0.691406 0.7148438,0.691406 H 14.285156 C 14.285156,16 15,16.000902 15,15.308594 V 9.6778675 C 15,8.9855593 14.285156,9.0001326 14.285156,9.0001326 H 10.714844 L 9.2851559,7.0000001 Z"/>
</svg>

<svg xmlns="http://www.w3.org/2000/svg" width="16" height="16" version="1.1">
 <path style="fill:#5c616c" d="M 2,1 C 2,1 1,1 1,2 v 9 3 c 0,1 1,1 1,1 H 4 V 13 H 3 V 3.0097656 h 8 V 5 7.9892578 8.0107422 L 13,8 V 6.25 2 C 13,1 12,1 12,1 Z M 5.7148438,7 C 5.7148438,7 5,6.9990985 5,7.6914062 V 15.308594 C 5,15.308594 5.0005581,16 5.7148438,16 H 14.285156 C 14.285156,16 15,16.000902 15,15.308594 V 9.6778672 C 15,8.9855595 14.285156,9.0001328 14.285156,9.0001328 H 10.714844 L 9.285156,7 Z"/>
</svg>
